X:20
T:Argyll is my name
M:6/8
L:1/8
Q:180
K:G
DD2 GGF|GBA AA2|cBA GB/d3/2|DDE FG2|D
W: G Am D G D G
D2 GGF|GBA AA2|cBA GB/d3/2|DDE FG2|d
W: G Am D G D G
dB GGB|ddc Bc2|edB GGB|ddc BA2|B
W: G G C G Em Am D
cd ccd|cDE Dc2|d/c/BA GB/d3/2|DDE FG2:|
W: C Am D G D G
